icons/outline/columns-off.svg

<!--
category: Text
tags: [text, gap, table]
version: "1.63"
unicode: "f0d4"
-->
<svg
  xmlns="http://www.w3.org/2000/svg"
  width="24"
  height="24"
  viewBox="0 0 24 24"
  fill="none"
  stroke="currentColor"
  stroke-width="2"
  stroke-linecap="round"
  stroke-linejoin="round"
>
  <path d="M4 6h2m-2 4h5.5m-5.5 4h5.5m-5.5 4h5.5m5 -12h5.5m-5.5 4h5.5m-2 4h2m-5.5 4h3.5m-15 -15l18 18" />
</svg>

<!--
category: Text
tags: [text, gap, table]
version: "1.63"
unicode: "f0d4"
-->
<svg
  xmlns="http://www.w3.org/2000/svg"
  width="24"
  height="24"
  viewBox="0 0 24 24"
  fill="none"
  stroke="currentColor"
  stroke-width="2"
  stroke-linecap="round"
  stroke-linejoin="round"
>
    <path d="M4 6h2M4 10h5.5M4 14h5.5M4 18h5.5M14.5 6h5.5M14.5 10h5.5M18 14h2M14.5 18h3.5M3 3l18 18" />
</svg>
